static/img/site/blog-3.svg

<svg width="373" height="184" viewBox="0 0 373 184" fill="none" xmlns="http://www.w3.org/2000/svg">
<path d="M0.25 24C0.25 10.7452 10.9952 0 24.25 0H348.25C361.505 0 372.25 10.7452 372.25 24V160C372.25 173.255 361.505 184 348.25 184H24.25C10.9952 184 0.25 173.255 0.25 160V24Z" fill="#EAFBF1"/>
<mask id="mask0_994_1894" style="mask-type:luminance" maskUnits="userSpaceOnUse" x="142" y="40" width="88" height="105">
<path d="M186.12 40.0006L142.25 92.4492L186.12 144.898L229.991 92.4492L186.12 40.0006Z" fill="white"/>
</mask>
<g mask="url(#mask0_994_1894)">
<path d="M188.198 53.8805C187.66 53.3133 186.964 53 186.243 53C185.522 53 184.826 53.3133 184.288 53.8805C177.019 61.5275 171.763 69.6648 168.663 78.0648C165.697 86.1018 164.901 94.0607 166.358 101.086C168.349 110.674 174.469 117.933 183.301 121.325V128.477C183.301 128.936 183.377 129.389 183.525 129.813C183.673 130.236 183.891 130.62 184.164 130.944C184.438 131.268 184.763 131.525 185.12 131.7C185.478 131.875 185.861 131.965 186.248 131.965C187.03 131.965 187.78 131.598 188.332 130.944C188.606 130.62 188.823 130.236 188.971 129.813C189.119 129.389 189.195 128.936 189.195 128.477V121.325C193.577 119.642 197.296 117.01 200.169 113.61C203.096 110.167 205.162 105.832 206.139 101.086C207.595 94.0607 206.798 86.0999 203.833 78.0648C200.725 69.6672 195.467 61.5275 188.198 53.8805ZM200.413 99.4262C199.04 106.045 195.114 111.07 189.179 113.92V79.2283C189.179 78.7705 189.103 78.3169 188.955 77.8935C188.807 77.4706 188.59 77.0857 188.317 76.7621C188.043 76.438 187.718 76.1813 187.36 76.0058C187.003 75.8303 186.62 75.7402 186.232 75.7402C185.846 75.7402 185.462 75.8303 185.105 76.0058C184.747 76.1813 184.422 76.438 184.149 76.7621C183.875 77.0857 183.658 77.4706 183.51 77.8935C183.362 78.3169 183.285 78.7705 183.285 79.2283L183.306 113.92C177.388 111.076 173.451 106.039 172.087 99.41C169.726 88.0345 175.003 73.9143 186.258 61.1952C197.495 73.9287 202.774 88.0512 200.413 99.4262Z" fill="#389E0D"/>
</g>
</svg>

<svg xmlns="http://www.w3.org/2000/svg" width="373" height="184" fill="none" viewBox="0 0 373 184"><path fill="#eafbf1" d="M.25 24c0-13.255 10.745-24 24-24h324c13.255 0 24 10.745 24 24v136c0 13.255-10.745 24-24 24h-324c-13.255 0-24-10.745-24-24z"/><mask id="a" width="88" height="105" x="142" y="40" maskUnits="userSpaceOnUse" style="mask-type:luminance"><path fill="#fff" d="m186.12 40-43.87 52.45 43.87 52.448 43.871-52.449z"/></mask><g mask="url(#a)"><path fill="#389e0d" d="M188.198 53.88c-.538-.567-1.234-.88-1.955-.88s-1.417.313-1.955.88c-7.269 7.648-12.525 15.785-15.625 24.185-2.966 8.037-3.762 15.996-2.305 23.021 1.991 9.588 8.111 16.847 16.943 20.239v7.152c0 .459.076.912.224 1.336a3.6 3.6 0 0 0 .639 1.131c.274.324.599.581.956.756.358.175.741.265 1.128.265.782 0 1.532-.367 2.084-1.021a3.6 3.6 0 0 0 .639-1.131 4 4 0 0 0 .224-1.336v-7.152c4.382-1.683 8.101-4.315 10.974-7.715 2.927-3.443 4.993-7.778 5.97-12.524 1.456-7.025.659-14.986-2.306-23.021-3.108-8.398-8.366-16.537-15.635-24.184m12.215 45.546c-1.373 6.619-5.299 11.644-11.234 14.494V79.228c0-.457-.076-.911-.224-1.334a3.6 3.6 0 0 0-.638-1.132 3 3 0 0 0-.957-.756 2.55 2.55 0 0 0-1.128-.266c-.386 0-.77.09-1.127.266a3 3 0 0 0-.956.756 3.6 3.6 0 0 0-.639 1.132 4 4 0 0 0-.225 1.334l.021 34.692c-5.918-2.844-9.855-7.881-11.219-14.51-2.361-11.376 2.916-25.496 14.171-38.215 11.237 12.734 16.516 26.856 14.155 38.231"/></g></svg>
